material/.icons/material/chevron-double-right.svg

<svg xmlns="http://www.w3.org/2000/svg" viewBox="0 0 24 24"><path d="M5.59 7.41L7 6l6 6-6 6-1.41-1.41L10.17 12 5.59 7.41m6 0L13 6l6 6-6 6-1.41-1.41L16.17 12l-4.58-4.59z"/></svg>

<?xml version="1.0" encoding="UTF-8"?><!DOCTYPE svg PUBLIC "-//W3C//DTD SVG 1.1//EN" "http://www.w3.org/Graphics/SVG/1.1/DTD/svg11.dtd"><svg xmlns="http://www.w3.org/2000/svg" xmlns:xlink="http://www.w3.org/1999/xlink" version="1.1" id="mdi-chevron-double-right" width="24" height="24" viewBox="0 0 24 24"><path d="M5.59,7.41L7,6L13,12L7,18L5.59,16.59L10.17,12L5.59,7.41M11.59,7.41L13,6L19,12L13,18L11.59,16.59L16.17,12L11.59,7.41Z" /></svg>
